X:39
T: Treue Liebe
N: A0039
O: Europa, Mitteleuropa, Deutschland
N: Melodie (von Boehme zum Text gesetzt): Souterliedekens 1544
N: ad Ps. 66.
R: Romanze, Ballade, Lied
M: 3/2
L: 1/4
K: F
 |  |  | F2F2G2 | A4B2 | A2G4 | F4
c2 | d4c2 | c4A2 | B4B2 | A4
c2 | d4c2 | c4A2 | B2A2G2 | F4
B2 | A4G2 | A4B2 | c2BAG2 | F6

@@@ Tune index: 39
